X:279
T:Danza (Teberga 2)
R:Danza
C:Tradicional
S:Música Tradicional Asturiana, (C) Tello & Tito. Asturies, 2001.
S:http://pagina.de/MusTradAst <telloytito@asturies.org>
A:Asturies
B:DyC en Teberga, páxina 127
O:Teberga
Z:DyC en Teberga
M:3/8
L:1/8
Q:3/8=60
K:D
|: A A/A/A/A/|A A2|Adc|B A2|A E/E/F/G/|G E2|EFG|B A2 :|
"variaciones pal primer compás"
"|A/A/ A A/A/|"
"|A/A/A/A/A/A/|"
